!!!COM:	Bach, Johann Sebastian
!!!CDT:	1685/02/21/-1750/07/28/
!!!OTL@@DE:	Liebester Jesu, wir sind hier
!!!SCT:	BWV 373
!!!PC#:	131
!!!AGN:	chorale
!!!ONB: Same as No. 328
**kern	**kern	**kern	**kern
*ICvox	*ICvox	*ICvox	*ICvox
*Ibass	*Itenor	*Ialto	*Isoprn
*I"Bass	*I"Tenor	*I"Alto	*I"Soprano
*>[A,A,B]	*>[A,A,B]	*>[A,A,B]	*>[A,A,B]
*>norep[A,B]	*>norep[A,B]	*>norep[A,B]	*>norep[A,B]
*>A	*>A	*>A	*>A
*clefF4	*clefGv2	*clefG2	*clefG2
*k[f#]	*k[f#]	*k[f#]	*k[f#]
*G:	*G:	*G:	*G:
*M4/4	*M4/4	*M4/4	*M4/4
*met(c)	*met(c)	*met(c)	*met(c)
*MM100	*MM100	*MM100	*MM100
=1-	=1-	=1-	=1-
4GG	8GL	4d	4b
.	8AJ	.	.
[4G	4B	4d	8aL
.	.	.	8gJ
8GL]	4A	4d	4a
8F#	.	.	.
8E	4A	4f#	4dd
8DJ	.	.	.
=2	=2	=2	=2
8GL	8BL	4d	4b
8A	8cJ	.	.
8B	4d	8dL	4g
8GJ	.	8eJ	.
2D;	2d;	2f#;	2a;
=3	=3	=3	=3
8EE	4B	4e	4g
4E	.	.	.
.	4B	4f	4g
8D	.	.	.
8CC	4c	4e	4g
4C	.	.	.
.	4G	4d	4g
8BB	.	.	.
=4	=4	=4	=4
4AA	4c	8eL	4a
.	.	8f#XJ	.
8GGL	4d	[4g	4b
8BBJ	.	.	.
8CL	8eL	4g]	2a
8AAJ	8cJ	.	.
4D	8AL	4f#	.
.	16dL	.	.
.	16cJJ	.	.
=5	=5	=5	=5
1GG;	1B;	1d;	1g;
=6:|!	=6:|!	=6:|!	=6:|!
*>B	*>B	*>B	*>B
8GG	4G	4B	4d
4G	.	.	.
.	4A	4A	4d
8F#	.	.	.
4E	4G	8BL	4e
.	.	8c#J	.
[4D	4A	4d	4f#
=7	=7	=7	=7
4D]	4B	4e	4g
4C#	4A	4e	4a
4D	4A	4d	4f#
4D;	4F#;	4A;	4d;
=8	=8	=8	=8
8BBL	4.G	8dL	4g
8GG	.	8B	.
8AA	.	8c	4g
8BBJ	8F	8dJ	.
8CL	8EL	4e	4g
8D	8F#J	.	.
8C	8GL	4e	4g
8BBJ	16AL	.	.
.	16BJJ	.	.
=9	=9	=9	=9
4AA	4c	8eL	4a
.	.	8f#J	.
8GGL	4d	[4g	4b
8BBJ	.	.	.
2D	4.d	8gL]	2a
.	.	8eJ	.
.	.	4f#	.
.	8c	.	.
=10	=10	=10	=10
1GG;	1B;	1d;	1g;
==	==	==	==
*-	*-	*-	*-
!!!hum2abc: -Q ''
!!!title: @{PC#}. @{OTL@@DE}
!!!YOR1: 371 vierstimmige Choralges&auml;nge von Johann Sebastian Bach, 
!!!YOR2: 4th ed. by Alfred D&ouml;rffel (Leipzig: Breitkopf und H&auml;rtel, 
!!!YOR2: c.1875). 178 pp. Plate "V.A.10".  reprint: J.S. Bach, 371 Four-Part 
!!!YOR4: Chorales (New York: Associated Music Publishers, Inc., c.1940).
!!!SMS: B&H, 4th ed, Alfred D&ouml;rffel, c.1875, plate V.A.10
!!!EED:  Craig Stuart Sapp
!!!EEV:  2009/05/22
